blockchains/ethereum/assets/0x2b591e99afE9f32eAA6214f7B7629768c40Eeb39/logo.svg

<svg fill="none" height="250" viewBox="0 0 250 250" width="250" xmlns="http://www.w3.org/2000/svg" xmlns:xlink="http://www.w3.org/1999/xlink"><linearGradient id="a" gradientUnits="userSpaceOnUse" x1="62.5055" x2="187.509" y1="228.423" y2="11.9226"><stop offset="0" stop-color="#ffdc00"/><stop offset=".33" stop-color="#e58e2f"/><stop offset=".67" stop-color="#db2d72"/><stop offset="1" stop-color="#f0f"/></linearGradient><clipPath id="b"><path d="m0 0h250v250h-250z"/></clipPath><g clip-path="url(#b)"><path d="m58.7611 224.937-16.9271-29.32c-.2621-.534-.3984-1.121-.3984-1.717 0-.595.1363-1.182.3984-1.717l18.7956-32.547c.3306-.502.7737-.921 1.2942-1.222s1.104-.477 1.7043-.513h37.5839c.601.036 1.186.212 1.707.513.522.301.967.72 1.299 1.222l18.795 32.547c.266.54.404 1.134.404 1.736s-.138 1.195-.404 1.735l-18.795 32.547c-.331.492-.768.903-1.28 1.202-.511.299-1.084.479-1.674.526h-33.7882c-1.7375-.111-3.4263-.618-4.937-1.484-1.5107-.865-2.803-2.065-3.7777-3.508zm122.0569-66.977-37.443-64.8286c-.455-.6855-1.063-1.2562-1.775-1.6676-.713-.4113-1.511-.6519-2.332-.703h-74.8866c-.8211.0511-1.6192.2917-2.3316.703-.7124.4114-1.3199.9821-1.7747 1.6676l-37.4435 64.8576c-.3679.736-.5594 1.548-.5594 2.371s.1915 1.634.5594 2.371l10.9746 19.024 19.2018-33.234c.5203-.798 1.2213-1.463 2.0463-1.94.825-.478 1.7508-.754 2.7024-.807h49.3343c.951.053 1.877.329 2.702.807.825.477 1.526 1.142 2.046 1.94l24.675 42.732c.429.85.653 1.79.653 2.743s-.224 1.893-.653 2.744l-19.202 33.234h21.934c.822-.051 1.621-.292 2.334-.705.712-.413 1.319-.986 1.772-1.673l37.444-64.851c.379-.74.578-1.559.582-2.39.003-.831-.188-1.652-.56-2.395zm67.945-42.902-57.436-99.524c-.973-1.4874-2.282-2.7254-3.821-3.6144-1.54-.889-3.266-1.404-5.041-1.5036h-114.9227c-1.7748.0996-3.5014.6146-5.0407 1.5036-1.5394.889-2.8484 2.127-3.8217 3.6144l-57.45768 99.524c-.801004 1.586-1.21831375 3.338-1.21831375 5.115 0 1.776.41730975 3.528 1.21831375 5.114l13.16798 22.806 38.1821-66.1429c.6431-.9847 1.5091-1.804 2.5279-2.3917 1.0188-.5876 2.1616-.9271 3.336-.9908h86.7108c1.174.0637 2.317.4032 3.336.9908 1.019.5877 1.885 1.407 2.528 2.3917l43.359 75.1009c.532 1.049.808 2.207.808 3.383 0 1.175-.276 2.334-.808 3.382l-38.175 66.113h26.27c1.775-.099 3.501-.614 5.041-1.503 1.539-.889 2.848-2.127 3.821-3.615l57.458-99.524c.801-1.586 1.218-3.338 1.218-5.114 0-1.777-.417-3.529-1.218-5.115z" fill="url(#a)"/></g></svg>

<svg width="250" height="250" viewBox="0 0 250 250" fill="none" xmlns="http://www.w3.org/2000/svg">
<g clip-path="url(#clip0_30_511)">
<path d="M58.7611 224.937L41.834 195.617C41.5719 195.083 41.4356 194.496 41.4356 193.9C41.4356 193.305 41.5719 192.718 41.834 192.183L60.6296 159.636C60.9602 159.134 61.4033 158.715 61.9238 158.414C62.4443 158.113 63.0278 157.937 63.6281 157.901H101.212C101.813 157.937 102.398 158.113 102.919 158.414C103.441 158.715 103.886 159.134 104.218 159.636L123.013 192.183C123.279 192.723 123.417 193.317 123.417 193.919C123.417 194.521 123.279 195.114 123.013 195.654L104.218 228.201C103.887 228.693 103.45 229.104 102.938 229.403C102.427 229.702 101.854 229.882 101.264 229.929H67.4758C65.7383 229.818 64.0495 229.311 62.5388 228.445C61.0281 227.58 59.7358 226.38 58.7611 224.937ZM180.818 157.96L143.375 93.1314C142.92 92.4459 142.312 91.8752 141.6 91.4638C140.887 91.0525 140.089 90.8119 139.268 90.7608H64.3814C63.5603 90.8119 62.7622 91.0525 62.0498 91.4638C61.3374 91.8752 60.7299 92.4459 60.2751 93.1314L22.8316 157.989C22.4637 158.725 22.2722 159.537 22.2722 160.36C22.2722 161.183 22.4637 161.994 22.8316 162.731L33.8062 181.755L53.008 148.521C53.5283 147.723 54.2293 147.058 55.0543 146.581C55.8793 146.103 56.8051 145.827 57.7567 145.774H107.091C108.042 145.827 108.968 146.103 109.793 146.581C110.618 147.058 111.319 147.723 111.839 148.521L136.514 191.253C136.943 192.103 137.167 193.043 137.167 193.996C137.167 194.949 136.943 195.889 136.514 196.74L117.312 229.974H139.246C140.068 229.923 140.867 229.682 141.58 229.269C142.292 228.856 142.899 228.283 143.352 227.596L180.796 162.745C181.175 162.005 181.374 161.186 181.378 160.355C181.381 159.524 181.19 158.703 180.818 157.96ZM248.763 115.058L191.327 15.534C190.354 14.0466 189.045 12.8086 187.506 11.9196C185.966 11.0306 184.24 10.5156 182.465 10.416L67.5423 10.416C65.7675 10.5156 64.0409 11.0306 62.5016 11.9196C60.9622 12.8086 59.6532 14.0466 58.6799 15.534L1.22222 115.058C0.421216 116.644 0.00390625 118.396 0.00390625 120.173C0.00390625 121.949 0.421216 123.701 1.22222 125.287L14.3902 148.093L52.5723 81.9501C53.2154 80.9654 54.0814 80.1461 55.1002 79.5584C56.119 78.9708 57.2618 78.6313 58.4362 78.5676H145.147C146.321 78.6313 147.464 78.9708 148.483 79.5584C149.502 80.1461 150.368 80.9654 151.011 81.9501L194.37 157.051C194.902 158.1 195.178 159.258 195.178 160.434C195.178 161.609 194.902 162.768 194.37 163.816L156.195 229.929H182.465C184.24 229.83 185.966 229.315 187.506 228.426C189.045 227.537 190.354 226.299 191.327 224.811L248.785 125.287C249.586 123.701 250.003 121.949 250.003 120.173C250.003 118.396 249.586 116.644 248.785 115.058H248.763Z" fill="url(#paint0_linear_30_511)"/>
</g>
<defs>
<linearGradient id="paint0_linear_30_511" x1="62.5055" y1="228.423" x2="187.509" y2="11.9226" gradientUnits="userSpaceOnUse">
<stop stop-color="#FFDC00"/>
<stop offset="0.33" stop-color="#E58E2F"/>
<stop offset="0.67" stop-color="#DB2D72"/>
<stop offset="1" stop-color="#FF00FF"/>
</linearGradient>
<clipPath id="clip0_30_511">
<rect width="250" height="250" fill="white"/>
</clipPath>
</defs>
</svg>
